X:0705
T:Grim Malcolm.
M:C
L:1/16
Q:1/4=100
N:upbeats don't add up
I: :: ::
Z:Jack Campin * www.campin.me.uk * 2009
K:G
  ba|g2G2 cBAG F2A2A2 ba|g2G2B2d2  g4 agfe|d2G2 cBAG  F2A2`A2B2|E2FG D2EF G4 G4 :|
d4  |g3`a`b2g2 agfe d2d2|g3a babc' a4 d3d |gfga gabc' b2e2`e2b2|a2d2 fgaf g4 g2d2|
     g3`a`b3`g agfe d2d2|g3a babc' a4 d3d |gfga gabc' bagf efga|a2d2 fgaf g4 g4 |]
<end>
<start>
